X:9045
%9177
T:Lady of the Lake,The. GS.028
M:6/8
L:1/8
Q:1/4=120
S:George Spencer m/s, Leeds,1831
R:Jig
O:England
A:Leeds
N:The pause is written over the double bar lin
H:1831
Z:vmp.Cherri Graebe
K:Cmaj
EFD C2G, | A,2G,C2G, | EFD C2 A, | G,GGG2F | EFD C2G, |
%Error : '!' or '+' in middle of line ignored
 A,2G,C2G, | A,2G,F2E |
%Error : Guitar chord name not properly closed
 DCB,""

%Error : Malformed note : expecting a-g or A-G

%Error : Guitar chord name not properly closed
PdsA"C2 :||"
F | E2 E EFD | E2F GAB |
%Error : '!' or '+' in middle of line ignored
 c2BA2G | GFE D2 F | E2E EFD | E2F GAB | cBA d2
c | BcA G2 F :||


